svg/food/dinner_line.svg

<svg xmlns="http://www.w3.org/2000/svg" width="24" height="24" viewBox="0 0 24 24"><g fill="none" fill-rule="evenodd"><path d="M24,0 L24,24 L0,24 L0,0 L24,0 Z M12.5935,23.2578 L12.5819,23.2595 L12.5109,23.295 L12.4919,23.2987 L12.4767,23.295 L12.4057,23.2595 C12.3958,23.2564 12.387,23.259 12.3821,23.2649 L12.378,23.2758 L12.3609,23.7031 L12.3659,23.7235 L12.3769,23.7357 L12.4805,23.8097 L12.4953,23.8136 L12.5071,23.8097 L12.6107,23.7357 L12.6233,23.7197 L12.6267,23.7031 L12.6096,23.2758 C12.6076,23.2657 12.601,23.2593 12.5935,23.2578 Z M12.8584,23.1453 L12.8445,23.1473 L12.6598,23.2397 L12.6499,23.2499 L12.6472,23.2611 L12.6651,23.6906 L12.6699,23.7034 L12.6784,23.7105 L12.8793,23.8032 C12.8914,23.8069 12.9022,23.803 12.9078,23.7952 L12.9118,23.7812 L12.8777,23.1665 C12.8753,23.1546 12.8674,23.147 12.8584,23.1453 Z M12.143,23.1473 C12.1332,23.1424 12.1222,23.1453 12.1156,23.1526 L12.1099,23.1665 L12.0758,23.7812 C12.0751,23.7927 12.0828,23.8019 12.0926,23.8046 L12.1083,23.8032 L12.3092,23.7105 L12.3186,23.7024 L12.3225,23.6906 L12.3404,23.2611 L12.3372,23.2485 L12.3278,23.2397 L12.143,23.1473 Z"/><path fill="#09244B" d="M14.7071,2.29289 C15.0976,2.68342 15.0976,3.31658 14.7071,3.70711 L10.4142,8 L12.5858,8 L18.2929,2.29289 C18.6834,1.90237 19.3166,1.90237 19.7071,2.29289 C20.0976,2.68342 20.0976,3.31658 19.7071,3.70711 L15.4142,8 L19.9381,8 C20.4425,8 20.868,8.3757 20.9304,8.87626 C20.9764,9.2448 21,9.61987 21,10 C21,13.694 18.7751,16.8662 15.5941,18.2534 L15.9701,19.7575 C16.0448,20.0562 15.9777,20.3727 15.7882,20.6154 C15.5987,20.8581 15.3079,21 15,21 L9,21 C8.69206,21 8.4013,20.8581 8.21179,20.6154 C8.02229,20.3727 7.95517,20.0562 8.02986,19.7575 L8.40588,18.2534 C5.22493,16.8662 3,13.694 3,10 C3,9.61987 3.02362,9.2448 3.06958,8.87626 C3.132,8.3757 3.55746,8 4.06189,8 L7.58579,8 L13.2929,2.29289 C13.6834,1.90237 14.3166,1.90237 14.7071,2.29289 Z M5,10 C5,13.1303 7.05545,15.7832 9.89281,16.6776 C10.3972,16.8365 10.6906,17.3608 10.5623,17.8738 L10.2808,19 L13.7192,19 L13.4377,17.8738 C13.3094,17.3608 13.6028,16.8365 14.1072,16.6776 C16.9445,15.7832 19,13.1303 19,10 L5,10 Z"/></g></svg>

<svg xmlns="http://www.w3.org/2000/svg" width="24" height="24"><g fill="none" fill-rule="evenodd"><path d="M24 0v24H0V0zM12.594 23.258l-.012.002-.071.035-.02.004-.014-.004-.071-.036c-.01-.003-.019 0-.024.006l-.004.01-.017.428.005.02.01.013.104.074.015.004.012-.004.104-.074.012-.016.004-.017-.017-.427c-.002-.01-.009-.017-.016-.018m.264-.113-.014.002-.184.093-.01.01-.003.011.018.43.005.012.008.008.201.092c.012.004.023 0 .029-.008l.004-.014-.034-.614c-.003-.012-.01-.02-.02-.022m-.715.002a.023.023 0 0 0-.027.006l-.006.014-.034.614c0 .012.007.02.017.024l.015-.002.201-.093.01-.008.003-.011.018-.43-.003-.012-.01-.01z"/><path fill="#09244B" d="M14.707 2.293a1 1 0 0 1 0 1.414L10.414 8h2.172l5.707-5.707a1 1 0 1 1 1.414 1.414L15.414 8h4.524a1 1 0 0 1 .992.876 9.002 9.002 0 0 1-5.336 9.377l.376 1.505A1 1 0 0 1 15 21H9a1 1 0 0 1-.97-1.242l.376-1.505A9.002 9.002 0 0 1 3.07 8.876 1 1 0 0 1 4.062 8h3.524l5.707-5.707a1 1 0 0 1 1.414 0M5 10a7.004 7.004 0 0 0 4.893 6.678 1 1 0 0 1 .67 1.196L10.28 19h3.438l-.281-1.126a1 1 0 0 1 .67-1.196A7.004 7.004 0 0 0 19 10z"/></g></svg>
